X: 18541
M: 6/8
L: 1/8
K: Bb
V: 1 clef=treble middle=B
|:\
|:\
c2B A2d | c2B A2d | c2BA2G | F2F F2d |\
c2B A2d | c2B A2d | cdB ABG | FGE DEC "D.C."y|]
V: 2 clef=bass middle=d
|:\
b3 b3 | b3 b3 | e3 e3 | f3 f3 |\
b2c' d'3 | b2c' d'3 | e3 f3 | bfd B3 "^Fine"H:|
|:\
f3 f2b | a2g f2b | c'3 c3 | fac' f2b | a2g f2b | a2g f2b | c'3 c3 | f2z z2z "D.C."y|]

